X: 154
T: Ronfleuse Gobeille
T: Snoring (Mrs) Gobeille
O: trad Qu\'ebec
R: reel
N: The third part is identical to the second part of Judy's Reel (Maid Behind the Bar)
B: NEFR #154
B: Begin (Fiddle Music from the Ottawa Valley: Dawson Girdwood), 1985; #49, p.58
B: Carlin (Master Collection), 1984; #78, p.52
B: Hart & Sandell (Dance ce Soir), 2001; p.74
B: Hinds/Hebert (Grumbling Old Woman), 1981; p.17
B: Miller & Perron (New England Fiddler's Repertoire), 1983; #154
D: First recorded on 78 RPM by fiddler Willie Ringuette (1898-1969) of Trois-Rivières.
D: Compo Records, Joseph Bouchard - "Reel carnaval" (1968. Appears as "Saint-Siméon”".
D: Folkways FG3531, "Jean Carignan, Old Time Fiddle Songs" (1966).
D: Folkways FTS 31098, Ken Perlman - "Clawhammer Banjo and Fingerstyle Guitar Solos."
D: Philo PH2001, "Jean Carignan" (1973).
D: Rounder 7002, Graham Townsend - "Le Violon/The Fiddle."
D: La Bottine souriante - "Y a ben du changement" (1978).
Z: 2007 John Chambers <jc:trillian.mit.edu> from Pascal Gemme's blog
M: C|
L: 1/8
K: D
|: "D"a2 fd Ad fa | "A7"ge ce "D"fd df | "D"a2 fd Ad fa | "A7"ge cA "D"d4 :|
[| "D"A2 f2 fe f2 | "G"B2 g2 gf g2 | "A7"A2 c2 ef ec | "D"dc de ((3fga) fd |
|  "D"A2 f2 fe f2 | "G"B2 g2 gf g2 | "A7"A3  c ef ec | "D"d2 "(A7)"[e2d2] "D"[f4d4] |]
[| "D"fa ab af de | "D"fd ad bd fd | "Em"ef ga bg ef | "Em"ge be "A7"ge eg |
|  "D"fg af bf af | "D"de fd ef de | "Bm"fB BA Bc dB | "A7"AF EF "D"D4 |]


